X:139
T:Valse Saint Jean
C:Patrick Bouffard
M:3/4
K:D
A3 G F2 |A2 G2 F2 |GA B4 |B2 GA GF |G3 F E2 |G2 F2 E2 |FG A4 |A2 AB A^G |
A3 G F2 |A2 G2 F2 |GA B4 |c2 d2 B2 |A3 G F2 |A2 G2 E2 |1D6 |D6 :|2 D6 |D2 AB A^G |:
A2 AB A^G |A2 AB A^G |A^G AB AG |G2 GA GF |G2 GA GF |G2 GA GF |
GF GA Bc |B2 AB A^G |A2 AB A^G |A2 AB A^G |A^G AB AG |
G2 GA GF |G2 GA GF |G2 GA GF |GF GA Bc |1d2 AB A^G :|2d6 |]

